images/3233065.svg

<?xml version="1.0" encoding="UTF-8"?>
<svg xmlns="http://www.w3.org/2000/svg" xmlns:xlink="http://www.w3.org/1999/xlink" width="300pt" height="300pt" viewBox="0 0 300 300" version="1.1">
<defs>
<g>
<symbol overflow="visible" id="glyph0-0">
<path style="stroke:none;" d="M 0.546875 1.9375 L 0.546875 -7.75 L 6.046875 -7.75 L 6.046875 1.9375 Z M 1.171875 1.328125 L 5.4375 1.328125 L 5.4375 -7.140625 L 1.171875 -7.140625 Z M 1.171875 1.328125 "/>
</symbol>
<symbol overflow="visible" id="glyph0-1">
<path style="stroke:none;" d="M 1.078125 -8.015625 L 2.546875 -8.015625 L 6.09375 -1.3125 L 6.09375 -8.015625 L 7.15625 -8.015625 L 7.15625 0 L 5.6875 0 L 2.125 -6.703125 L 2.125 0 L 1.078125 0 Z M 1.078125 -8.015625 "/>
</symbol>
<symbol overflow="visible" id="glyph0-2">
<path style="stroke:none;" d="M 4.328125 -7.28125 C 3.546875 -7.28125 2.921875 -6.984375 2.453125 -6.390625 C 1.992188 -5.804688 1.765625 -5.007812 1.765625 -4 C 1.765625 -2.988281 1.992188 -2.1875 2.453125 -1.59375 C 2.921875 -1.007812 3.546875 -0.71875 4.328125 -0.71875 C 5.117188 -0.71875 5.742188 -1.007812 6.203125 -1.59375 C 6.660156 -2.1875 6.890625 -2.988281 6.890625 -4 C 6.890625 -5.007812 6.660156 -5.804688 6.203125 -6.390625 C 5.742188 -6.984375 5.117188 -7.28125 4.328125 -7.28125 Z M 4.328125 -8.171875 C 5.453125 -8.171875 6.351562 -7.789062 7.03125 -7.03125 C 7.707031 -6.28125 8.046875 -5.269531 8.046875 -4 C 8.046875 -2.738281 7.707031 -1.726562 7.03125 -0.96875 C 6.351562 -0.21875 5.453125 0.15625 4.328125 0.15625 C 3.203125 0.15625 2.300781 -0.21875 1.625 -0.96875 C 0.957031 -1.71875 0.625 -2.726562 0.625 -4 C 0.625 -5.269531 0.957031 -6.28125 1.625 -7.03125 C 2.300781 -7.789062 3.203125 -8.171875 4.328125 -8.171875 Z M 4.328125 -8.171875 "/>
</symbol>
</g>
</defs>
<g id="surface40261">
<rect x="0" y="0" width="300" height="300" style="fill:rgb(100%,100%,100%);fill-opacity:1;stroke:none;"/>
<path style="fill:none;stroke-width:1.2;stroke-linecap:butt;stroke-linejoin:miter;stroke:rgb(0%,0%,0%);stroke-opacity:1;stroke-miterlimit:10;" d="M 41.0625 190.59375 L 61.6875 175.332031 "/>
<path style="fill:none;stroke-width:1.2;stroke-linecap:butt;stroke-linejoin:miter;stroke:rgb(0%,0%,0%);stroke-opacity:1;stroke-miterlimit:10;" d="M 61.6875 175.332031 L 73.453125 180.445312 "/>
<path style="fill:none;stroke-width:1.2;stroke-linecap:butt;stroke-linejoin:miter;stroke:rgb(0%,0%,100%);stroke-opacity:1;stroke-miterlimit:10;" d="M 73.453125 180.445312 L 85.21875 185.5625 "/>
<path style="fill:none;stroke-width:1.2;stroke-linecap:butt;stroke-linejoin:miter;stroke:rgb(0%,0%,0%);stroke-opacity:1;stroke-miterlimit:10;" d="M 66.449219 170.816406 L 75.859375 174.910156 "/>
<path style="fill:none;stroke-width:1.2;stroke-linecap:butt;stroke-linejoin:miter;stroke:rgb(0%,0%,100%);stroke-opacity:1;stroke-miterlimit:10;" d="M 75.859375 174.910156 L 85.273438 179 "/>
<path style="fill:none;stroke-width:1.2;stroke-linecap:butt;stroke-linejoin:miter;stroke:rgb(0%,0%,0%);stroke-opacity:1;stroke-miterlimit:10;" d="M 58.78125 149.839844 L 61.6875 175.332031 "/>
<path style="fill:none;stroke-width:1.2;stroke-linecap:butt;stroke-linejoin:miter;stroke:rgb(0%,0%,100%);stroke-opacity:1;stroke-miterlimit:10;" d="M 85.21875 185.5625 L 95.53125 177.929688 "/>
<path style="fill:none;stroke-width:1.2;stroke-linecap:butt;stroke-linejoin:miter;stroke:rgb(0%,0%,0%);stroke-opacity:1;stroke-miterlimit:10;" d="M 95.53125 177.929688 L 105.84375 170.296875 "/>
<path style=" stroke:none;fill-rule:nonzero;fill:rgb(100%,100%,100%);fill-opacity:1;" d="M 81.21875 179.0625 L 89.21875 179.0625 L 89.21875 192.0625 L 81.21875 192.0625 Z M 81.21875 179.0625 "/>
<g style="fill:rgb(0%,0%,100%);fill-opacity:1;">
  <use xlink:href="#glyph0-1" x="81.21875" y="188.963867"/>
</g>
<path style="fill:none;stroke-width:1.2;stroke-linecap:butt;stroke-linejoin:miter;stroke:rgb(0%,0%,0%);stroke-opacity:1;stroke-miterlimit:10;" d="M 105.84375 170.296875 L 129.375 180.527344 "/>
<path style="fill:none;stroke-width:1.2;stroke-linecap:butt;stroke-linejoin:miter;stroke:rgb(0%,0%,0%);stroke-opacity:1;stroke-miterlimit:10;" d="M 110.605469 165.785156 L 129.429688 173.96875 "/>
<path style="fill:none;stroke-width:1.2;stroke-linecap:butt;stroke-linejoin:miter;stroke:rgb(0%,0%,0%);stroke-opacity:1;stroke-miterlimit:10;" d="M 102.9375 144.804688 L 105.84375 170.296875 "/>
<path style="fill:none;stroke-width:1.2;stroke-linecap:butt;stroke-linejoin:miter;stroke:rgb(0%,0%,0%);stroke-opacity:1;stroke-miterlimit:10;" d="M 129.375 180.527344 L 139.6875 172.894531 "/>
<path style="fill:none;stroke-width:1.2;stroke-linecap:butt;stroke-linejoin:miter;stroke:rgb(0%,0%,100%);stroke-opacity:1;stroke-miterlimit:10;" d="M 139.6875 172.894531 L 150 165.265625 "/>
<path style="fill:none;stroke-width:1.2;stroke-linecap:butt;stroke-linejoin:miter;stroke:rgb(0%,0%,100%);stroke-opacity:1;stroke-miterlimit:10;" d="M 150 165.265625 L 148.546875 152.515625 "/>
<path style="fill:none;stroke-width:1.2;stroke-linecap:butt;stroke-linejoin:miter;stroke:rgb(0%,0%,0%);stroke-opacity:1;stroke-miterlimit:10;" d="M 148.546875 152.515625 L 147.09375 139.769531 "/>
<path style="fill:none;stroke-width:1.2;stroke-linecap:butt;stroke-linejoin:miter;stroke:rgb(0%,0%,100%);stroke-opacity:1;stroke-miterlimit:10;" d="M 143.710938 163.398438 L 142.546875 153.199219 "/>
<path style="fill:none;stroke-width:1.2;stroke-linecap:butt;stroke-linejoin:miter;stroke:rgb(0%,0%,0%);stroke-opacity:1;stroke-miterlimit:10;" d="M 142.546875 153.199219 L 141.386719 143.003906 "/>
<path style=" stroke:none;fill-rule:nonzero;fill:rgb(100%,100%,100%);fill-opacity:1;" d="M 146 158.765625 L 154 158.765625 L 154 171.765625 L 146 171.765625 Z M 146 158.765625 "/>
<g style="fill:rgb(0%,0%,100%);fill-opacity:1;">
  <use xlink:href="#glyph0-1" x="146" y="168.666992"/>
</g>
<path style="fill:none;stroke-width:1.2;stroke-linecap:butt;stroke-linejoin:miter;stroke:rgb(0%,0%,0%);stroke-opacity:1;stroke-miterlimit:10;" d="M 147.09375 139.769531 L 135.328125 134.65625 "/>
<path style="fill:none;stroke-width:1.2;stroke-linecap:butt;stroke-linejoin:miter;stroke:rgb(0%,0%,100%);stroke-opacity:1;stroke-miterlimit:10;" d="M 135.328125 134.65625 L 123.5625 129.539062 "/>
<path style="fill:none;stroke-width:1.2;stroke-linecap:butt;stroke-linejoin:miter;stroke:rgb(0%,0%,0%);stroke-opacity:1;stroke-miterlimit:10;" d="M 147.09375 139.769531 L 157.40625 132.136719 "/>
<path style="fill:none;stroke-width:1.2;stroke-linecap:butt;stroke-linejoin:miter;stroke:rgb(100%,0%,0%);stroke-opacity:1;stroke-miterlimit:10;" d="M 157.40625 132.136719 L 167.71875 124.507812 "/>
<path style="fill:none;stroke-width:1.2;stroke-linecap:butt;stroke-linejoin:miter;stroke:rgb(0%,0%,100%);stroke-opacity:1;stroke-miterlimit:10;" d="M 123.5625 129.539062 L 113.25 137.171875 "/>
<path style="fill:none;stroke-width:1.2;stroke-linecap:butt;stroke-linejoin:miter;stroke:rgb(0%,0%,0%);stroke-opacity:1;stroke-miterlimit:10;" d="M 113.25 137.171875 L 102.9375 144.804688 "/>
<path style="fill:none;stroke-width:1.2;stroke-linecap:butt;stroke-linejoin:miter;stroke:rgb(0%,0%,100%);stroke-opacity:1;stroke-miterlimit:10;" d="M 125.089844 135.917969 L 116.839844 142.023438 "/>
<path style="fill:none;stroke-width:1.2;stroke-linecap:butt;stroke-linejoin:miter;stroke:rgb(0%,0%,0%);stroke-opacity:1;stroke-miterlimit:10;" d="M 116.839844 142.023438 L 108.589844 148.128906 "/>
<path style=" stroke:none;fill-rule:nonzero;fill:rgb(100%,100%,100%);fill-opacity:1;" d="M 119.5625 123.039062 L 127.5625 123.039062 L 127.5625 136.039062 L 119.5625 136.039062 Z M 119.5625 123.039062 "/>
<g style="fill:rgb(0%,0%,100%);fill-opacity:1;">
  <use xlink:href="#glyph0-1" x="119.5625" y="132.94043"/>
</g>
<path style="fill:none;stroke-width:1.2;stroke-linecap:butt;stroke-linejoin:miter;stroke:rgb(0%,0%,0%);stroke-opacity:1;stroke-miterlimit:10;" d="M 102.9375 144.804688 L 91.171875 139.6875 "/>
<path style="fill:none;stroke-width:1.2;stroke-linecap:butt;stroke-linejoin:miter;stroke:rgb(0%,0%,100%);stroke-opacity:1;stroke-miterlimit:10;" d="M 91.171875 139.6875 L 79.40625 134.574219 "/>
<path style="fill:none;stroke-width:1.2;stroke-linecap:butt;stroke-linejoin:miter;stroke:rgb(0%,0%,100%);stroke-opacity:1;stroke-miterlimit:10;" d="M 79.40625 134.574219 L 69.09375 142.207031 "/>
<path style="fill:none;stroke-width:1.2;stroke-linecap:butt;stroke-linejoin:miter;stroke:rgb(0%,0%,0%);stroke-opacity:1;stroke-miterlimit:10;" d="M 69.09375 142.207031 L 58.78125 149.839844 "/>
<path style="fill:none;stroke-width:1.2;stroke-linecap:butt;stroke-linejoin:miter;stroke:rgb(0%,0%,100%);stroke-opacity:1;stroke-miterlimit:10;" d="M 79.40625 134.574219 L 77.953125 121.828125 "/>
<path style="fill:none;stroke-width:1.2;stroke-linecap:butt;stroke-linejoin:miter;stroke:rgb(0%,0%,0%);stroke-opacity:1;stroke-miterlimit:10;" d="M 77.953125 121.828125 L 76.5 109.082031 "/>
<path style=" stroke:none;fill-rule:nonzero;fill:rgb(100%,100%,100%);fill-opacity:1;" d="M 75.40625 128.074219 L 83.40625 128.074219 L 83.40625 141.074219 L 75.40625 141.074219 Z M 75.40625 128.074219 "/>
<g style="fill:rgb(0%,0%,100%);fill-opacity:1;">
  <use xlink:href="#glyph0-1" x="75.40625" y="137.975586"/>
</g>
<path style="fill:none;stroke-width:1.2;stroke-linecap:butt;stroke-linejoin:miter;stroke:rgb(0%,0%,0%);stroke-opacity:1;stroke-miterlimit:10;" d="M 59.984375 147.070312 L 48.21875 141.953125 "/>
<path style="fill:none;stroke-width:1.2;stroke-linecap:butt;stroke-linejoin:miter;stroke:rgb(100%,0%,0%);stroke-opacity:1;stroke-miterlimit:10;" d="M 48.21875 141.953125 L 36.453125 136.839844 "/>
<path style="fill:none;stroke-width:1.2;stroke-linecap:butt;stroke-linejoin:miter;stroke:rgb(0%,0%,0%);stroke-opacity:1;stroke-miterlimit:10;" d="M 57.578125 152.605469 L 45.8125 147.492188 "/>
<path style="fill:none;stroke-width:1.2;stroke-linecap:butt;stroke-linejoin:miter;stroke:rgb(100%,0%,0%);stroke-opacity:1;stroke-miterlimit:10;" d="M 45.8125 147.492188 L 34.046875 142.375 "/>
<path style=" stroke:none;fill-rule:nonzero;fill:rgb(100%,100%,100%);fill-opacity:1;" d="M 26.25 133.109375 L 35.25 133.109375 L 35.25 146.109375 L 26.25 146.109375 Z M 26.25 133.109375 "/>
<g style="fill:rgb(100%,0%,0%);fill-opacity:1;">
  <use xlink:href="#glyph0-2" x="26.25" y="143.010742"/>
</g>
<path style="fill:none;stroke-width:1.2;stroke-linecap:butt;stroke-linejoin:miter;stroke:rgb(100%,0%,0%);stroke-opacity:1;stroke-miterlimit:10;" d="M 167.71875 124.507812 L 179.484375 129.621094 "/>
<path style="fill:none;stroke-width:1.2;stroke-linecap:butt;stroke-linejoin:miter;stroke:rgb(0%,0%,0%);stroke-opacity:1;stroke-miterlimit:10;" d="M 179.484375 129.621094 L 191.25 134.734375 "/>
<path style=" stroke:none;fill-rule:nonzero;fill:rgb(100%,100%,100%);fill-opacity:1;" d="M 163.71875 118.007812 L 172.71875 118.007812 L 172.71875 131.007812 L 163.71875 131.007812 Z M 163.71875 118.007812 "/>
<g style="fill:rgb(100%,0%,0%);fill-opacity:1;">
  <use xlink:href="#glyph0-2" x="163.71875" y="127.90918"/>
</g>
<path style="fill:none;stroke-width:1.2;stroke-linecap:butt;stroke-linejoin:miter;stroke:rgb(0%,0%,0%);stroke-opacity:1;stroke-miterlimit:10;" d="M 191.25 134.734375 L 194.15625 160.230469 "/>
<path style="fill:none;stroke-width:1.2;stroke-linecap:butt;stroke-linejoin:miter;stroke:rgb(0%,0%,0%);stroke-opacity:1;stroke-miterlimit:10;" d="M 197.539062 136.601562 L 199.863281 156.996094 "/>
<path style="fill:none;stroke-width:1.2;stroke-linecap:butt;stroke-linejoin:miter;stroke:rgb(0%,0%,0%);stroke-opacity:1;stroke-miterlimit:10;" d="M 211.875 119.472656 L 191.25 134.734375 "/>
<path style="fill:none;stroke-width:1.2;stroke-linecap:butt;stroke-linejoin:miter;stroke:rgb(0%,0%,0%);stroke-opacity:1;stroke-miterlimit:10;" d="M 194.15625 160.230469 L 217.6875 170.460938 "/>
<path style="fill:none;stroke-width:1.2;stroke-linecap:butt;stroke-linejoin:miter;stroke:rgb(0%,0%,0%);stroke-opacity:1;stroke-miterlimit:10;" d="M 217.6875 170.460938 L 238.3125 155.195312 "/>
<path style="fill:none;stroke-width:1.2;stroke-linecap:butt;stroke-linejoin:miter;stroke:rgb(0%,0%,0%);stroke-opacity:1;stroke-miterlimit:10;" d="M 216.160156 164.082031 L 232.660156 151.871094 "/>
<path style="fill:none;stroke-width:1.2;stroke-linecap:butt;stroke-linejoin:miter;stroke:rgb(0%,0%,0%);stroke-opacity:1;stroke-miterlimit:10;" d="M 238.3125 155.195312 L 235.40625 129.703125 "/>
<path style="fill:none;stroke-width:1.2;stroke-linecap:butt;stroke-linejoin:miter;stroke:rgb(0%,0%,0%);stroke-opacity:1;stroke-miterlimit:10;" d="M 238.3125 155.195312 L 250.078125 160.3125 "/>
<path style="fill:none;stroke-width:1.2;stroke-linecap:butt;stroke-linejoin:miter;stroke:rgb(100%,0%,0%);stroke-opacity:1;stroke-miterlimit:10;" d="M 250.078125 160.3125 L 261.84375 165.425781 "/>
<path style="fill:none;stroke-width:1.2;stroke-linecap:butt;stroke-linejoin:miter;stroke:rgb(0%,0%,0%);stroke-opacity:1;stroke-miterlimit:10;" d="M 235.40625 129.703125 L 211.875 119.472656 "/>
<path style="fill:none;stroke-width:1.2;stroke-linecap:butt;stroke-linejoin:miter;stroke:rgb(0%,0%,0%);stroke-opacity:1;stroke-miterlimit:10;" d="M 230.644531 134.214844 L 211.820312 126.03125 "/>
<path style="fill:none;stroke-width:1.2;stroke-linecap:butt;stroke-linejoin:miter;stroke:rgb(100%,0%,0%);stroke-opacity:1;stroke-miterlimit:10;" d="M 261.84375 165.425781 L 263.296875 178.171875 "/>
<path style="fill:none;stroke-width:1.2;stroke-linecap:butt;stroke-linejoin:miter;stroke:rgb(0%,0%,0%);stroke-opacity:1;stroke-miterlimit:10;" d="M 263.296875 178.171875 L 264.75 190.917969 "/>
<path style=" stroke:none;fill-rule:nonzero;fill:rgb(100%,100%,100%);fill-opacity:1;" d="M 257.84375 158.925781 L 266.84375 158.925781 L 266.84375 171.925781 L 257.84375 171.925781 Z M 257.84375 158.925781 "/>
<g style="fill:rgb(100%,0%,0%);fill-opacity:1;">
  <use xlink:href="#glyph0-2" x="257.84375" y="168.827148"/>
</g>
</g>
</svg>

<svg xmlns="http://www.w3.org/2000/svg" xmlns:xlink="http://www.w3.org/1999/xlink" width="300pt" height="300pt" viewBox="0 0 300 300"><defs><symbol overflow="visible"><path d="M.547 1.938V-7.75h5.5v9.688zm.625-.61h4.266v-8.47H1.171zm0 0"/></symbol><symbol overflow="visible" id="a"><path d="M1.078-8.016h1.47l3.546 6.704v-6.704h1.062V0H5.688L2.124-6.703V0H1.078zm0 0"/></symbol><symbol overflow="visible" id="b"><path d="M4.328-7.28c-.78 0-1.406.296-1.875.89-.46.585-.687 1.382-.687 2.39 0 1.012.226 1.813.687 2.406.47.586 1.094.875 1.875.875.79 0 1.414-.288 1.875-.874.457-.593.688-1.394.688-2.406 0-1.008-.23-1.805-.687-2.39-.46-.594-1.086-.89-1.875-.89zm0-.892c1.125 0 2.024.383 2.703 1.14C7.708-6.28 8.048-5.27 8.048-4c0 1.262-.34 2.273-1.016 3.03C6.353-.22 5.454.157 4.33.157S2.3-.22 1.625-.97c-.668-.75-1-1.757-1-3.03 0-1.27.332-2.28 1-3.03.676-.76 1.578-1.142 2.703-1.142zm0 0"/></symbol></defs><g><path fill="#fff" d="M0 0h300v300H0z"/><path d="M41.063 190.594l20.624-15.262M61.688 175.332l11.765 5.113" stroke-width="1.2" stroke="#000" stroke-miterlimit="10" fill="none"/><path d="M73.453 180.445l11.766 5.118" stroke-width="1.2" stroke="#00f" stroke-miterlimit="10" fill="none"/><path d="M66.45 170.816l9.41 4.094" stroke-width="1.2" stroke="#000" stroke-miterlimit="10" fill="none"/><path d="M75.86 174.91l9.413 4.09" stroke-width="1.2" stroke="#00f" stroke-miterlimit="10" fill="none"/><path d="M58.78 149.84l2.907 25.492" stroke-width="1.2" stroke="#000" stroke-miterlimit="10" fill="none"/><path d="M85.22 185.563l10.31-7.633" stroke-width="1.2" stroke="#00f" stroke-miterlimit="10" fill="none"/><path d="M95.53 177.93l10.314-7.633" stroke-width="1.2" stroke="#000" stroke-miterlimit="10" fill="none"/><path d="M81.22 179.063h8v13h-8zm0 0" fill="#fff"/><use xlink:href="#a" x="81.219" y="188.964" fill="#00f"/><path d="M105.844 170.297l23.53 10.23M110.605 165.785l18.825 8.184M102.938 144.805l2.906 25.492M129.375 180.527l10.313-7.632" stroke-width="1.2" stroke="#000" stroke-miterlimit="10" fill="none"/><path d="M139.688 172.895l10.312-7.63M150 165.266l-1.453-12.75" stroke-width="1.2" stroke="#00f" stroke-miterlimit="10" fill="none"/><path d="M148.547 152.516l-1.453-12.746" stroke-width="1.2" stroke="#000" stroke-miterlimit="10" fill="none"/><path d="M143.71 163.398l-1.163-10.2" stroke-width="1.2" stroke="#00f" stroke-miterlimit="10" fill="none"/><path d="M142.547 153.2l-1.16-10.196" stroke-width="1.2" stroke="#000" stroke-miterlimit="10" fill="none"/><path d="M146 158.766h8v13h-8zm0 0" fill="#fff"/><use xlink:href="#a" x="146" y="168.667" fill="#00f"/><path d="M147.094 139.77l-11.766-5.114" stroke-width="1.2" stroke="#000" stroke-miterlimit="10" fill="none"/><path d="M135.328 134.656l-11.766-5.117" stroke-width="1.2" stroke="#00f" stroke-miterlimit="10" fill="none"/><path d="M147.094 139.77l10.312-7.633" stroke-width="1.2" stroke="#000" stroke-miterlimit="10" fill="none"/><path d="M157.406 132.137l10.313-7.63" stroke-width="1.2" stroke="#f00" stroke-miterlimit="10" fill="none"/><path d="M123.563 129.54l-10.313 7.632" stroke-width="1.2" stroke="#00f" stroke-miterlimit="10" fill="none"/><path d="M113.25 137.172l-10.313 7.633" stroke-width="1.2" stroke="#000" stroke-miterlimit="10" fill="none"/><path d="M125.09 135.918l-8.25 6.105" stroke-width="1.2" stroke="#00f" stroke-miterlimit="10" fill="none"/><path d="M116.84 142.023l-8.25 6.106" stroke-width="1.2" stroke="#000" stroke-miterlimit="10" fill="none"/><path d="M119.563 123.04h8v13h-8zm0 0" fill="#fff"/><use xlink:href="#a" x="119.563" y="132.94" fill="#00f"/><path d="M102.938 144.805l-11.766-5.118" stroke-width="1.2" stroke="#000" stroke-miterlimit="10" fill="none"/><path d="M91.172 139.688l-11.766-5.114M79.406 134.574l-10.312 7.633" stroke-width="1.2" stroke="#00f" stroke-miterlimit="10" fill="none"/><path d="M69.094 142.207L58.78 149.84" stroke-width="1.2" stroke="#000" stroke-miterlimit="10" fill="none"/><path d="M79.406 134.574l-1.453-12.746" stroke-width="1.2" stroke="#00f" stroke-miterlimit="10" fill="none"/><path d="M77.953 121.828L76.5 109.082" stroke-width="1.2" stroke="#000" stroke-miterlimit="10" fill="none"/><path d="M75.406 128.074h8v13h-8zm0 0" fill="#fff"/><use xlink:href="#a" x="75.406" y="137.976" fill="#00f"/><path d="M59.984 147.07l-11.765-5.117" stroke-width="1.2" stroke="#000" stroke-miterlimit="10" fill="none"/><path d="M48.22 141.953l-11.767-5.113" stroke-width="1.2" stroke="#f00" stroke-miterlimit="10" fill="none"/><path d="M57.578 152.605l-11.766-5.113" stroke-width="1.2" stroke="#000" stroke-miterlimit="10" fill="none"/><path d="M45.813 147.492l-11.766-5.117" stroke-width="1.2" stroke="#f00" stroke-miterlimit="10" fill="none"/><path d="M26.25 133.11h9v13h-9zm0 0" fill="#fff"/><use xlink:href="#b" x="26.25" y="143.011" fill="#f00"/><path d="M167.72 124.508l11.764 5.113" stroke-width="1.2" stroke="#f00" stroke-miterlimit="10" fill="none"/><path d="M179.484 129.62l11.766 5.114" stroke-width="1.2" stroke="#000" stroke-miterlimit="10" fill="none"/><path d="M163.72 118.008h9v13h-9zm0 0" fill="#fff"/><use xlink:href="#b" x="163.719" y="127.909" fill="#f00"/><path d="M191.25 134.734l2.906 25.496M197.54 136.602l2.323 20.394M211.875 119.473l-20.625 15.26M194.156 160.23l23.53 10.23M217.688 170.46l20.625-15.265M216.16 164.082l16.5-12.21M238.313 155.195l-2.907-25.492M238.313 155.195l11.765 5.118" stroke-width="1.2" stroke="#000" stroke-miterlimit="10" fill="none"/><path d="M250.078 160.313l11.766 5.113" stroke-width="1.2" stroke="#f00" stroke-miterlimit="10" fill="none"/><path d="M235.406 129.703l-23.53-10.23M230.645 134.215l-18.825-8.184" stroke-width="1.2" stroke="#000" stroke-miterlimit="10" fill="none"/><path d="M261.844 165.426l1.453 12.746" stroke-width="1.2" stroke="#f00" stroke-miterlimit="10" fill="none"/><path d="M263.297 178.172l1.453 12.746" stroke-width="1.2" stroke="#000" stroke-miterlimit="10" fill="none"/><path d="M257.844 158.926h9v13h-9zm0 0" fill="#fff"/><use xlink:href="#b" x="257.844" y="168.827" fill="#f00"/></g></svg>
